**kern
*ICvox
*A:
*M4/4
*clefF4
r;
0.04
=1
*>Label>Intro
1.22
1.34
.
=2
1r
1.46
=3
1r
1.58
.
=4
1r
1.7
=5
8.56
8.69
.
=6
1r
8.82
=7
1r
=8
8.95
=9
16.29
=10
16.54
16.67
16.7
16.74
16.77
=11
*>Label>Verse
*>Letter>A
20.18
20.2
20.21
20.28
4r
=12
20.31
20.33
20.34
20.36
20.37
20.41
20.42
=13
20.44
20.47
20.54
8A
20.55
=14
20.57
20.59
20.6
20.62
20.63
20.65
20.67
20.68
=15
27.91
27.95
28.01
8A
28.03
=16
28.04
28.06
28.08
28.09
28.1
28.11
28.14
28.16
=17
28.17
=18
28.3
28.37
28.38
28.4
28.42
=19
35.62
35.64
35.65
35.68
35.7
35.72
35.73
=20
35.75
35.76
35.78
35.8
35.81
35.84
35.86
35.87
=21
35.88
35.91
35.97
8A
35.99
=22
36.01
36.02
36.04
36.05
36.07
36.1
36.12
=23
43.39
43.42
43.48
8A
43.5
=24
43.52
43.53
43.55
43.56
43.57
43.58
43.61
43.63
=25
43.65
43.71
43.73
43.73
43.74
43.75
43.76
=26
43.77
43.78
43.79
43.81
43.87
.
.
4r
43.9
=27
*>Letter>C
*>Label>Chorus
51.12
51.25
.
.
.
=28
1r
51.38
.
.
.
.
.
=29
1r
51.51
.
.
.
=30
1r
51.64
.
.
.
.
.
=31
58.84
58.97
.
.
.
=32
1r
59.1
.
.
.
.
.
=33
1r
=34
59.23
59.36
=35
*>Letter>A
*>Label>Verse
66.57
66.6
66.62
66.64
66.67
66.69
=36
66.7
66.73
8F#
66.75
66.77
66.8
66.81
=37
66.83
66.86
66.88
66.9
66.93
66.94
=38
66.96
66.99
8F#
67.01
67.02
67.06
67.07
=39
74.3
74.34
74.35
74.37
74.4
74.42
=40
74.43
74.46
8F#
74.48
74.5
74.53
74.54
74.55
=41
74.56
74.62
=42
74.69
74.75
74.77
74.78
74.8
=43
82.12
82.14
82.15
82.19
82.2
82.22
82.23
=44
82.25
82.27
82.28
82.3
82.32
82.35
82.36
=45
82.38
82.4
82.41
82.48
8A
82.49
=46
82.51
82.53
82.54
82.56
82.57
82.57
82.61
82.62
=47
89.84
89.87
89.94
8A
89.95
=48
89.97
89.99
90
90.02
90.03
90.03
90.07
90.08
=49
90.1
=50
90.23
90.29
90.32
90.34
=51
97.58
97.6
97.65
97.66
97.68
97.7
=52
97.71
97.74
97.76
97.79
8e
97.81
97.83
=53
97.84
97.89
97.92
8c#
97.94
97.96
=54
97.97
97.99
98
98.02
98.07
8c
98.08
=55
105.3
105.32
105.34
105.4
4r
=56
105.43
105.45
105.47
105.48
105.49
105.5
105.53
105.55
=57
105.56
105.66
=58
105.69
105.76
.
.
4a
105.79
8r
105.81
=59
*>Letter>C
*>Label>Chorus
113.03
113.07
113.08
113.13
4r
=60
113.16
113.29
.
.
.
.
.
=61
2r
113.36
.
8e
113.37
113.42
=62
2f#]
113.49
.
.
8f#
113.5
113.52
113.54
=63
120.78
120.82
120.85
8r
120.86
120.88
120.89
120.9
=64
120.91
120.95
2r
121.01
.
4r
121.04
=65
1r
=66
*clefG2
121.17
121.24
121.25
121.27
121.28
=67
128.54
128.57
128.58
128.63
8b
128.65
=68
128.66
128.7
8b
128.71
128.76
4r
128.79
=69
4cc#
128.82
128.84
128.89
8b
128.9
=70
128.92
128.95
8b
128.97
129.02
4r
129.05
=71
NaN
Inf
Inf
Inf
8b
Inf
=72
Inf
Inf
8b
Inf
Inf
8r
Inf
Inf
=73
Inf
=74
Inf
Inf
=75
*>Letter>D
*>Label>Bridge
Inf
Inf
Inf
Inf
Inf
Inf
Inf
Inf
=76
Inf
Inf
Inf
Inf
8e
Inf
Inf
=77
Inf
Inf
Inf
Inf
Inf
Inf
=78
Inf
Inf
Inf
Inf
Inf
Inf
Inf
=79
Inf
Inf
Inf
Inf
Inf
Inf
=80
Inf
Inf
Inf
Inf
Inf
Inf
Inf
Inf
Inf
=81
Inf
Inf
Inf
Inf
Inf
=82
Inf
Inf
Inf
Inf
Inf
=83
*>Letter>C
*>Label>Chorus
Inf
Inf
Inf
Inf
8b
Inf
=84
Inf
Inf
8b
Inf
Inf
4r
Inf
=85
4cc#
Inf
Inf
Inf
8b
Inf
=86
Inf
Inf
8b
Inf
Inf
4r
Inf
=87
4cc#
Inf
Inf
Inf
8b
Inf
=88
Inf
Inf
8b
Inf
Inf
8r
Inf
Inf
=89
Inf
=90
Inf
Inf
Inf
Inf
Inf
=91
Inf
Inf
Inf
Inf
8b
Inf
=92
Inf
Inf
8b
Inf
Inf
4r
Inf
=93
4cc#
Inf
Inf
Inf
8b
Inf
=94
Inf
Inf
8b
Inf
Inf
4r
Inf
=95
4cc#
Inf
Inf
Inf
8b
Inf
=96
Inf
Inf
8b
Inf
Inf
8r
Inf
Inf
=97
Inf
=98
Inf
Inf
=99
Inf
Inf
Inf
Inf
8b
Inf
=100
Inf
Inf
Inf
Inf
4r
=101
Inf
Inf
Inf
Inf
8b
Inf
=102
Inf
Inf
Inf
Inf
4r
=103
Inf
Inf
Inf
Inf
8b
Inf
=104
Inf
Inf
Inf
Inf
8r
Inf
Inf
=105
Inf
=106
Inf
Inf
=107
Inf
Inf
Inf
Inf
8b
Inf
=108
Inf
Inf
Inf
Inf
4r
=109
Inf
Inf
Inf
Inf
8b
Inf
=110
Inf
Inf
Inf
Inf
4r
=111
Inf
Inf
Inf
Inf
8b
Inf
=112
Inf
Inf
Inf
Inf
8r
Inf
Inf
=113
Inf
=114
Inf
2r
*-
!!!BillboardChartDate: 1979/01/06
!!!BillboardPeak: 8
!!!BillboardWeeksOnChart: 17
!!!COC: Earth, Wind & Fire
!!!EMD: The song is the key of A, not D, as the harmonic transcription originally had. (I also believe the A chord at the end of each phrase is not a dominant chord).
!!!EMD: This harmonic transcription was way too short. I added the material to match the correct recording (just repeating the same chord progression).
!!!ENC: Nathaniel Condit-Schultz
!!!EST: Awating manual error checking and editing.
!!!OTL: September
!!!RDF**chordsym: original McGill chord annotation + (implied pitch class set, with bass pitch in first position)
!!!RDF**harmony: **recip + pitch class of root + harmonic quality
!!!RDF**leadinstrument: original McGill primary instrumentation annotation
!!!RDF**phrase: newline = linebreak in original McGill transcription
!!!RDF**timestamp: McGill audio timestamp in seconds
!!!RDT: 2017/01/12/
!!!SampleActualRank: 15
!!!SampleID#: 0804
!!!SampleTargetRank: 16
